app/assets/images/payment_icons/fintecture.svg

<svg width="38" height="24" viewBox="0 0 38 24" role="img" aria-labelledby="pi-fintecture" fill="none" xmlns="http://www.w3.org/2000/svg">
<title id="pi-fintecture">Fintecture</title>
<rect width="38" height="24" fill="white"/>
<path d="M18.407 11.5123C18.4536 11.4558 18.5035 11.4025 18.56 11.356C18.5035 11.4025 18.4536 11.4558 18.407 11.5123Z" fill="#1DDBA9"/>
<path d="M18.4071 11.5123C18.3372 11.5955 18.2773 11.6887 18.2307 11.7885C18.2773 11.6887 18.3372 11.5955 18.4071 11.5123Z" fill="#1DDBA9"/>
<path d="M24.8885 9.45276C24.8487 9.47931 24.8056 9.50253 24.7625 9.52576C24.8056 9.50253 24.8454 9.47931 24.8885 9.45276Z" fill="#1DDBA9"/>
<path d="M24.1667 0.192627C23.9338 0.192627 23.7142 0.25252 23.5245 0.358996C23.5245 0.358996 11.4628 7.31988 11.4528 7.3232C11.0635 7.54281 10.7773 7.9421 10.7773 8.42124V21.5145C10.7773 22.0735 11.2033 22.5293 11.719 22.6857L16.4372 23.9534C16.5503 23.9834 16.6668 24 16.7899 24C17.482 24 18.1175 23.4677 18.1175 22.7988V20.9655L15.5654 20.6494C14.9499 20.5628 14.4874 19.9972 14.484 19.3517V9.95516C14.504 9.42943 14.8301 8.98357 15.2893 8.78725L25.5243 4.62803V1.42043C25.4577 0.731659 24.8655 0.192627 24.1667 0.192627Z" fill="#1DDBA9"/>
<path d="M19.1424 11.0398C18.5568 11.1995 18.111 11.7052 18.111 12.3341V20.962L20.49 21.2582C21.232 21.358 21.821 20.6626 21.821 19.9272L21.831 15.1557C21.831 14.5102 22.3767 14.0011 23.0122 13.908L28.0532 13.2724C28.0532 13.2724 28.0532 13.2724 28.0565 13.2724C28.6621 13.1893 29.1812 12.7201 29.1812 12.1079V4.92072C29.1812 4.25524 28.539 3.76611 27.8635 3.76611C27.7005 3.76611 27.5441 3.79606 27.401 3.8493L25.5144 4.61793C25.5144 6.42469 25.5144 8.32795 25.5144 8.32795C25.5144 8.92356 25.1051 9.42599 24.5661 9.59569L19.1424 11.0398Z" fill="#0B1643"/>
<path d="M15.2793 8.78386C14.8202 8.98017 14.4941 9.42605 14.4741 9.95177V19.3483C14.4774 19.9938 14.94 20.5595 15.5555 20.646L18.1076 20.9621V12.3342C18.1076 11.702 18.5535 11.1962 19.1391 11.0398L24.5627 9.6024C25.1018 9.4327 25.511 8.93026 25.511 8.33466C25.511 8.33134 25.511 6.4314 25.511 4.62463L15.2793 8.78386Z" fill="white"/>
</svg>

<svg width="38" height="24" viewBox="0 0 38 24" role="img" aria-labelledby="pi-fintecture" fill="none" xmlns="http://www.w3.org/2000/svg"><title id="pi-fintecture">Fintecture</title><path fill="#fff" d="M0 0h38v24H0z"/><path d="M18.407 11.512zM18.407 11.512zM24.889 9.453a2.46 2.46 0 000 0zM24.167.193c-.233 0-.453.06-.643.166 0 0-12.061 6.96-12.071 6.964-.39.22-.676.62-.676 1.098v13.094c0 .558.426 1.014.942 1.17l4.718 1.268c.113.03.23.047.353.047.692 0 1.328-.532 1.328-1.201v-1.834l-2.553-.316c-.615-.086-1.078-.652-1.081-1.297V9.955c.02-.526.346-.971.805-1.168l10.235-4.159V1.42A1.37 1.37 0 0024.167.193z" fill="#1DDBA9"/><path d="M19.142 11.04c-.585.16-1.031.665-1.031 1.294v8.628l2.379.296c.742.1 1.331-.595 1.331-1.33l.01-4.772c0-.646.546-1.155 1.181-1.248l5.041-.636h.003c.606-.083 1.125-.552 1.125-1.164V4.92c0-.666-.642-1.155-1.318-1.155-.162 0-.319.03-.462.083l-1.887.769v3.71c0 .596-.409 1.098-.948 1.268l-5.424 1.444z" fill="#0B1643"/><path d="M15.28 8.784c-.46.196-.786.642-.806 1.168v9.396c.003.646.466 1.212 1.082 1.298l2.552.316v-8.628c0-.632.445-1.138 1.031-1.294l5.424-1.438c.539-.17.948-.672.948-1.267v-3.71L15.279 8.784z" fill="#fff"/></svg>
